X:1
T:Title
%%score 1 { 2 | 3 }
L:1/8
Q:1/4=170
M:6/4
K:F
V:1 treble nm="Grand Piano, Staff 1"
V:2 bass nm="Choir Pad, Wenn meine S�nd�"
V:3 bass 
V:1
 [CA]4 [B,F]2- [B,F]2 [CA]2 [CA]2- | [CA]2 [Ec]2 [DB]2- [DB]2 [^CA]4 | %2
w: By~Michael~Praetorius,~1609 * * * *||
 z2 [CE]2 [DG]2- [DG]2 [EG]2 [=B,D]2- | [B,D]2 [^CE]2 [DF]2- [DF]2 [CE]4 | %4
w: ||
 z2 [FA]2 [Fc]2- [Fc]2 [DB]2 [CA]2- | [CA]2 [A,F]2 [CG]2- [CG]2 [A,F]4 | %6
w: ||
 z2 [CA]2 [EG]2- [EG]2 [DF]2 [DG]2- | [DG]2 [DG]2 [^CE]2- [CE]2 D4 | %8
w: ||
 z4 [A,F]2 [CE]2 [CF]2 [B,G]2- | [B,G]2 [CA]2 [DF]2- [DF]2 [DG]2 [^CA]2- | %10
w: ||
 [CA]4 [Ec]2 [E=B]2 [EA]2 [EG]2- | [EG]2 [CA]2 [EG]2- [EG]2 [DF]2 [^CE]2 | %12
w: ||
 z2 [^CA]2 [DF]2- [DF]2 [B,G]2 [DA]2- | [DA]2 [^CA]2 [CE]2- [CE]2 D4- | D12 |] %15
w: |||
V:2
 E,4 D,2- D,2 F,2 F,2- | F,2 G,2 G,2- G,2 E,4 | z2 A,2 G,2- G,2 G,2 G,2- | %3
 G,2 G,2 A,2- A,4- A,3/2 z/ | z2 C2 C2- C2 F,2 E,2- | E,2 F,2 F,2 E,2 F,4 | %6
 z2 F,2 C2- C2 A,2 B,2- | B,2 G,2 A,2- A,2 ^F,4 | z4 F,2 G,2 A,2 D,2- | D,2 F,2 F,2- F,2 D,2 E,2- | %10
 E,4 A,2 =B,2 C2 B,2- | B,2 A,2 C2- C2 A,2 A,2 | z2 E,2 D,2- D,2 D,2 F,2- | %13
 F,2 E,2 A,2- A,2 ^F,4- | F,12 |] %15
V:3
 A,,4 B,,2- B,,2 .F,,4 | z2 C,2 G,,2- G,,2 A,,4 | z2 A,,2 =B,,2- B,,2 .C,4 | z2 E,2 D,2- D,2 A,,4 | %4
 z2 F,,2 A,,2- A,,2 B,,2 C,2- | C,2 D,2 C,2- C,3/2 z/ F,,4 | z4 C,2- C,2 D,2 G,,2- | %7
 G,,2 B,,2 A,,2- A,,2 D,4 | z4 D,2 C,2 A,,2 G,,2- | G,,2 F,,2 B,,2- B,,2 B,,2 A,,2- | %10
 A,,6 _A,2 =A,2 E,2- | E,2 F,2 C,2- C,2 D,2 A,,2 | z2 A,,2 B,,2- B,,2 G,,2 D,2- | %13
 D,2 A,,2 A,,2- A,,2 D,4- | D,12 |] %15

